X:1
T:He Supplieth All of My Need
T:He Supplieth All of My Need
T:Charles Hutchinson Gabriel
T:Thomas Obediah Chisholm, 1914
T:Public Domain Courtesy of the Cyber Hymnal™
T:Public Domain Courtesy of the Cyber Hymnal™
C:Charles Hutchinson Gabriel
Z:Public Domain
Z:Courtesy of the Cyber Hymnal™
%%score ( 1 2 ) ( 3 4 )
L:1/8
Q:1/4=110
M:9/8
K:G
V:1 treble 
V:2 treble 
V:3 bass 
V:4 bass 
V:1
 D[DG][DA] | [GB]3 [DG]3 [GB][Gc][G^c] | [Gd]3 [GB]3 [DG][DF][DG] | [Dc]3 [DB]3 [DA][FA][GA] | %4
w: 1.~All of my|need He free- ly sup-|pli- eth, Day af- ter|day His good- ness I|
w: 2.~All of my|need He free- ly sup-|pli- eth, Wis- dom and|guid- ance, strength as my|
w: 3.~All of my|need He free- ly sup-|pli- eth, There’s not a|void that He can- not|
w: 4.~All of my|need He free- ly sup-|pli- eth, I shall not|want, what- ev- er be-|
 [FA]6 D[DG][DA] | [GB]3 [DG]3 [GB][Gc][G^c] | [Gd]3 [GB]3 [GA][GB][Gc] | %7
w: prove; Mer- cies un-|fail- ing, new ev- ery|morn- ing, Tell me of|
w: day; Grace for each|tri- al, com- fort in|sor- row, Bless- èd com-|
w: feel; Ne- ver a|bur- den He can- not|light- en, Ne- ver a|
w: tide; He that de-|liv- ered Christ for my|ran- som, With Him will|
 [GB]3 [DG]3 [DF][DG][DA] | [DG]6 ||"^Refrain" [Gd][Gd][Gd] [Fd]3 [DF]3 [Fd][Gd][Ad] | %10
w: God’s un- change- a- ble|love.||
w: mun- ion all of the|way.|God hath laid help on One that is|
w: heart- ache He can- not|heal.||
w: all things sure- ly pro-|vide.||
 [Gd]3 [GB]3 [Gd][Gd][GB] | A3 A3 [G^c][GB][GA] | [Fd]6 D[DG][DA] | [GB]3 [DG]3 [GB][Gc][G^c] | %14
w: ||||
w: might- y, One who is|friend and bro- ther in-|deed; No- thing have|I, yet I am con-|
w: ||||
w: ||||
 [Gd]3 [GB]3 [GA][GB][Gc] | [GB]3 [DG]3 [DF][DG][DA] | [DG]6 |] %17
w: |||
w: tent- ed, For He sup-|pli- eth all of my|need.|
w: |||
w: |||
V:2
 D x2 | x9 | x9 | x9 | x6 D x2 | x9 | x9 | x9 | x6 || x12 | x9 | A3 A3 x3 | x6 D x2 | x9 | x9 | %15
 x9 | x6 |] %17
V:3
 [G,B,][G,B,][G,C] | [G,D]3 [G,B,]3 [G,D][G,A,][G,^A,] | [G,B,]3 [G,D]3 [B,D][A,C][G,B,] | %3
 [F,A,]3 G,3 [D,F,][D,A,][A,,^C] | (D3 C3) [G,B,][G,B,][G,C] | [G,D]3 [G,B,]3 [G,D][G,A,][G,^A,] | %6
 [G,B,]3 [G,D]3 [C,E][C,E][C,E] | [D,D]3 [D,B,]3 [D,A,][D,B,][D,C] | [G,,B,]6 || %9
 [G,B,][G,B,][G,B,] [A,C]3 [A,C]3 [D,A,][D,B,][D,C] | [G,B,]3 [G,D]3 [G,B,][G,B,][G,D] | %11
 [F,D]3 [F,D]3 [E,A,][E,A,][E,A,] | (A,3 C3) [G,B,][G,B,][G,C] | %13
 [G,D]3 [G,B,]3 [G,D][G,A,][G,^A,] | [G,B,]3 [G,D]3 [C,E][C,E][C,E] | %15
 [D,D]3 [D,B,]3 [D,A,][D,B,][D,C] | [G,,B,]6 |] %17
V:4
 x3 | x9 | x9 | x3 G,3 x3 | D,6 x3 | x9 | x9 | x9 | x6 || x12 | x9 | x9 | D,6 x3 | x9 | x9 | x9 | %16
 x6 |] %17

